X: 569
T: Painted Chamber
N: "The Country Farmers Daughter" handwritten above the title.
N: "???? 1728" handwritten to right of title.
P: Longways for as many as will
%R: jig
B: "The Dancing-Master: Containing Directions and Tunes for Dancing" printed by W. Pearson for John Walsh, London ca. 1709
S: 7: DMDfD http://digital.nls.uk/special-collections-of-printed-music/pageturner.cfm?id=89751228 p.134
Z: 2013 John Chambers <jc:trillian.mit.edu>
M: 6/4
L: 1/4
K: C
% - - - - - - - - - - - - - - - - - - - - - - - - -
G |\
A>Bc B2c | d2d d>ef |\
eAd BGB | c2c c2 |]\
g |\
e>fg a>bc' | g2g g>fe |\
a3 gec | d2d d2e |\
f>ga egG | cAe f2g |\
e>dc dGB | c2c c2 |]
% - - - - - - - - - - - - - - - - - - - - - - - - -
%%begintext align
%% The 1. man stand on the 1. wo. side, and cast off on the out-side into the 2. cu. place, and then into the 3.
%% cu. place, then all four take hands and lead down a-breast, then go the Figure through the 3. cu. into the
%% 2. cu. place, and turn their own, then the 1. and 2. cu. lead up all four hands a-breast, then the half Figure
%% into the 2. cu. place, and turn their own, the rest doing the like.
%% [DMDfD]
%%endtext
%%sep 1 8 500

%%sep 1 1 500
%%sep 1 1 500
